svg/fluentui-system-icons/ic_fluent_mic_pulse_off_48_filled.svg

<svg width="48" height="48" viewBox="0 0 48 48" fill="none" xmlns="http://www.w3.org/2000/svg">
<path d="M14 15.7678V24C14 28.4183 17.5817 32 22 32C22.1172 32 22.2337 31.9975 22.3496 31.9925C22.8144 30.0301 23.724 28.2398 24.9661 26.7338L26.388 28.1558C24.8932 30.0342 24 32.4128 24 35C24 41.0751 28.9249 46 35 46C37.5872 46 39.9658 45.1068 41.8442 43.612L41.8661 43.6339C42.3543 44.122 43.1457 44.122 43.6339 43.6339C44.122 43.1457 44.122 42.3543 43.6339 41.8661L6.13388 4.36612C5.64573 3.87796 4.85427 3.87796 4.36612 4.36612C3.87796 4.85427 3.87796 5.64573 4.36612 6.13388L14 15.7678ZM37.0219 38.7896L36.4363 40.3511C36.2885 40.7452 35.9098 41.0046 35.489 40.9999C35.0681 40.9953 34.6952 40.7276 34.5561 40.3304L32.3988 34.1666L37.0219 38.7896ZM31.7187 33.4864L30.9771 35.3958C30.8277 35.7803 30.4575 36.0337 30.0449 36.0337H28C27.4477 36.0337 27 35.586 27 35.0337C27 34.4814 27.4477 34.0337 28 34.0337H29.3606L30.1733 31.9411L31.7187 33.4864ZM30.3371 25.0343L37.3967 32.094L37.5637 31.6489C37.7033 31.2765 38.0504 31.0222 38.4476 31.0014C38.8448 30.9805 39.2166 31.197 39.3944 31.5528L40.6232 34.0104L42.0169 34.0338C42.5691 34.0432 43.0092 34.4984 42.9999 35.0506C42.9906 35.6028 42.5354 36.0429 41.9831 36.0336L41.3252 36.0225L44.9657 39.6629C45.6292 38.2472 46 36.6669 46 35C46 28.9249 41.0751 24 35 24C33.3331 24 31.7528 24.3708 30.3371 25.0343ZM14.5034 9.20069L28.8478 23.545C29.2213 23.344 29.6057 23.1607 30 22.9963V12C30 7.58172 26.4183 4 22 4C18.5665 4 15.6382 6.16299 14.5034 9.20069ZM22 35.25H22.0024C22.0341 36.9341 22.3861 38.5398 23 40.0088V42.75C23 43.4404 22.4404 44 21.75 44C21.0596 44 20.5 43.4404 20.5 42.75V37.6706C13.4734 36.9221 8 30.9752 8 23.75C8 23.0596 8.55964 22.5 9.25 22.5C9.94036 22.5 10.5 23.0596 10.5 23.75C10.5 30.1013 15.6487 35.25 22 35.25Z" fill="#212121"/>
</svg>

<svg xmlns="http://www.w3.org/2000/svg" width="48" height="48"><path d="M14 15.768V24a8 8 0 0 0 8.35 7.992 12.957 12.957 0 0 1 2.616-5.258l1.422 1.422A10.953 10.953 0 0 0 24 35c0 6.075 4.925 11 11 11 2.587 0 4.966-.893 6.844-2.388l.022.022a1.25 1.25 0 0 0 1.768-1.768l-37.5-37.5a1.25 1.25 0 1 0-1.768 1.768L14 15.768ZM37.022 38.79l-.586 1.561a1 1 0 0 1-1.88-.02L32.4 34.166l4.623 4.623Zm-5.303-5.304-.742 1.91a1 1 0 0 1-.932.638H28a1 1 0 1 1 0-2h1.36l.813-2.093 1.546 1.545Zm-1.382-8.452 7.06 7.06.167-.445a1 1 0 0 1 1.83-.096l1.23 2.457 1.393.024a1 1 0 0 1-.034 2l-.658-.011 3.64 3.64A10.959 10.959 0 0 0 46 35c0-6.075-4.925-11-11-11-1.667 0-3.247.37-4.663 1.034ZM14.503 9.201l14.345 14.344c.373-.201.758-.384 1.152-.549V12a8 8 0 0 0-15.497-2.8ZM22 35.25h.002c.032 1.684.384 3.29.998 4.759v2.741a1.25 1.25 0 1 1-2.5 0v-5.08C13.473 36.923 8 30.976 8 23.75a1.25 1.25 0 1 1 2.5 0c0 6.351 5.149 11.5 11.5 11.5Z"/></svg>
